teams/dark/140.svg

<svg xmlns="http://www.w3.org/2000/svg" viewBox="0 0 300 300"><title>Texas Rangers cap on dark logo</title><path fill="#c0111f" d="M191.71 250.85v-29.71l10.8 12.57v30.49h-91.05l-10.07-13.24v-.11Zm-24.27-100.53c0-9.31 13.96-13.37 14.1-13.42l7.08-2c4.07 2.92 8.1 4.49 8.1 4.49s-16.39 4.52-16.39 16.35v58.34h-4.09c-8.12 0-8.8-2.91-8.8-5.89Zm82.02-97.17v70.52H228.3l-10.25-12.82h19.16V40.24Zm-82.02 15.69c15.35.14 26.91 3.79 34.26 10.61-5.5-4.01-12.08-6.38-19.06-6.38l-2.31-.15v49.21c0 4.18 2.42 7.7 5.4 10.44l-3.9-1.53c-4-1.55-14.39-7.18-14.39-14.35Zm-89.05 35.44c.03-25.65 11.67-35.55 41.38-35.62v3.49c-27.53 2.98-30.02 19.67-30.02 45.97l-.03 4.74H62.05l-9.51-12.01h25.8l.04-6.57Z"/><path fill="#fff" d="M53.18 39.8h177.84v64.85h-13.97c.01-1.03.03-2.16.03-2.16 0-25.4-18.4-39.95-50.44-39.95h-3.1l-2.3-.02v54.16c0 8.26 7.04 13.79 12.43 16.98-5.46 2.76-12.43 7.79-12.43 16.67v57.86c0 5.51 2.6 12.08 14.99 12.08h9.28v24.4h-83.88v-24.4h9.88c8.91 0 14.43-4.82 14.43-12.59v-57.35c0-8.9-5.97-13.82-10.81-16.56 4.82-2.97 10.81-8.2 10.81-17.08V62.42h-5.89c-33.07 0-47.83 12.81-47.83 41.54.11-.43.14-.25.14.22 0 .14-.02.3-.02.48H53.18Zm153.38 211.49h8.68v1.91H212v8.83h-2.19v-8.83h-3.25Zm19.6 0h3.77v10.74h-2.2v-8.55h-.05l-3.11 8.55h-2.11l-3.01-8.55h-.05v8.55h-2.2v-10.74h3.8l2.5 7.02h.06Z"/></svg>

<svg width="300" height="300" viewBox="0 0 300 300" fill="none" xmlns="http://www.w3.org/2000/svg">
<path d="M191.71 250.85V221.14L202.51 233.71V264.2H111.46L101.39 250.96V250.85H191.71ZM167.44 150.32C167.44 141.01 181.4 136.95 181.54 136.9L188.62 134.9C192.69 137.82 196.72 139.39 196.72 139.39C196.72 139.39 180.33 143.91 180.33 155.74V214.08H176.24C168.12 214.08 167.44 211.17 167.44 208.19V150.32ZM249.46 53.15V123.67H228.3L218.05 110.85H237.21V40.24L249.46 53.15ZM167.44 68.84C182.79 68.98 194.35 72.63 201.7 79.45C196.2 75.44 189.62 73.07 182.64 73.07L180.33 72.92V122.13C180.33 126.31 182.75 129.83 185.73 132.57L181.83 131.04C177.83 129.49 167.44 123.86 167.44 116.69V68.84ZM78.39 104.28C78.42 78.63 90.06 68.73 119.77 68.66V72.15C92.24 75.13 89.75 91.82 89.75 118.12L89.72 122.86H62.05L52.54 110.85H78.34L78.38 104.28H78.39Z" fill="#C0111F"/>
<path d="M53.18 39.8H231.02V104.65H217.05C217.06 103.62 217.08 102.49 217.08 102.49C217.08 77.09 198.68 62.54 166.64 62.54H163.54L161.24 62.52V116.68C161.24 124.94 168.28 130.47 173.67 133.66C168.21 136.42 161.24 141.45 161.24 150.33V208.19C161.24 213.7 163.84 220.27 176.23 220.27H185.51V244.67H101.63V220.27H111.51C120.42 220.27 125.94 215.45 125.94 207.68V150.33C125.94 141.43 119.97 136.51 115.13 133.77C119.95 130.8 125.94 125.57 125.94 116.69V62.42H120.05C86.98 62.42 72.22 75.23 72.22 103.96C72.33 103.53 72.36 103.71 72.36 104.18C72.36 104.32 72.34 104.48 72.34 104.66H53.18V39.8Z" fill="white"/>
</svg>
